static/images/illustrations/jetpack-restore-success.svg

<svg width="85" height="85" viewBox="0 0 85 85" fill="none" xmlns="http://www.w3.org/2000/svg">
<mask id="mask0" mask-type="alpha" maskUnits="userSpaceOnUse" x="7" y="7" width="71" height="71">
<path d="M7.50831 47.9046C10.1362 64.8373 24.8696 77.9025 42.5035 77.9025C61.9791 77.9025 77.9131 61.9686 77.9131 42.493C77.9131 23.0173 61.9827 7.08337 42.5071 7.08337C30.8266 7.08337 20.5487 12.7536 14.1666 21.25V7.08692L7.09394 7.08337L7.08331 31.875H31.875V24.7917L20.5452 24.7882C25.5 18.4202 33.6529 14.1667 42.5071 14.1667C58.0833 14.1667 70.8333 26.9167 70.8333 42.493C70.8333 58.0692 58.0833 70.8228 42.5035 70.8228C28.7689 70.8228 17.2444 60.9273 14.705 47.9046H7.50831Z" fill="white"/>
</mask>
<g mask="url(#mask0)">
<rect width="85" height="85" fill="#069E08"/>
</g>
<path fill-rule="evenodd" clip-rule="evenodd" d="M41.818 49.046L32.2721 39.5L29.0901 42.682L38.636 52.2279L41.818 55.4099L45 52.2279L60.9099 36.318L57.7279 33.1361L41.818 49.046Z" fill="#D8D8D8"/>
<mask id="mask1" mask-type="alpha" maskUnits="userSpaceOnUse" x="29" y="33" width="32" height="23">
<path fill-rule="evenodd" clip-rule="evenodd" d="M41.818 49.046L32.2721 39.5L29.0901 42.682L38.636 52.2279L41.818 55.4099L45 52.2279L60.9099 36.318L57.7279 33.1361L41.818 49.046Z" fill="white"/>
</mask>
<g mask="url(#mask1)">
<rect x="27" y="26" width="36" height="36" fill="#069E08"/>
</g>
</svg>

<svg xmlns="http://www.w3.org/2000/svg" width="85" height="85" fill="none"><mask id="A" mask-type="alpha" maskUnits="userSpaceOnUse" x="7" y="7" width="71" height="71"><path d="M7.508 47.905c2.628 16.933 17.36 29.998 34.995 29.998 19.476 0 35.4-15.934 35.4-35.41s-15.93-35.4-35.406-35.4c-11.68 0-21.958 5.67-28.34 14.167V7.087l-7.073-.004-.01 24.792h24.792v-7.083l-11.33-.003c4.955-6.368 13.108-10.62 21.962-10.62 15.576 0 28.326 12.75 28.326 28.326s-12.75 28.33-28.33 28.33c-13.735 0-25.26-9.895-27.8-22.918H7.508z" fill="#fff"/></mask><g mask="url(#A)"><path fill="#069e08" d="M0 0h85v85H0z"/></g><path fill-rule="evenodd" d="M41.818 49.046L32.272 39.5 29.1 42.682 41.818 55.4 60.9 36.318l-3.182-3.182-15.9 15.9z" fill="#d8d8d8"/><mask id="B" mask-type="alpha" maskUnits="userSpaceOnUse" x="29" y="33" width="32" height="23"><path fill-rule="evenodd" d="M41.818 49.046L32.272 39.5 29.1 42.682 41.818 55.4 60.9 36.318l-3.182-3.182-15.9 15.9z" fill="#fff"/></mask><g mask="url(#B)"><path fill="#069e08" d="M27 26h36v36H27z"/></g></svg>
